html/assets/images/dynamic/business-enabler-6.svg

<svg width="72" height="79" viewBox="0 0 72 79" fill="none" xmlns="http://www.w3.org/2000/svg">
<path d="M7.66508 54.3374C4.06594 54.3374 1 50.9215 1 47.6723V32.6759C1 27.1772 10.2145 24.3445 15.9964 24.3445C21.7784 24.3445 32.6591 27.1772 32.6591 32.6759V52.6711" stroke="#00999A" stroke-width="2" stroke-linecap="round" stroke-linejoin="round"/>
<path d="M15.9961 19.3456C12.1137 19.3456 9.33105 16.6295 9.33105 12.6805V9.34794C9.33105 5.39888 12.1137 2.68286 15.9961 2.68286C19.8785 2.68286 22.6612 5.39888 22.6612 9.34794V12.6805C22.6612 16.6295 19.8785 19.3456 15.9961 19.3456Z" stroke="#00999A" stroke-width="2" stroke-linejoin="round"/>
<path d="M7.66504 77.665V36.0083" stroke="#00999A" stroke-width="2" stroke-linecap="round" stroke-linejoin="round"/>
<path d="M25.9941 36.0083V52.671" stroke="#00999A" stroke-width="2" stroke-linecap="round" stroke-linejoin="round"/>
<path d="M25.9941 67.6675V77.6651" stroke="#00999A" stroke-width="2" stroke-linecap="round" stroke-linejoin="round"/>
<path d="M15.9961 52.6711V77.6652" stroke="#00999A" stroke-width="2" stroke-linecap="round" stroke-linejoin="round"/>
<path d="M22.6779 67.6509H41.0068V52.6545H22.6779L22.6779 67.6509Z" stroke="#00999A" stroke-width="2" stroke-linejoin="round"/>
<path d="M27.46 12.6639C31.4923 5.69888 39.0239 1 47.6718 1C60.5521 1 70.9996 11.4475 70.9996 24.3278C70.9996 37.208 60.5521 47.6555 47.6718 47.6555C44.1227 47.6555 40.7568 46.8558 37.7575 45.4394" stroke="#00999A" stroke-width="2" stroke-miterlimit="10"/>
<path d="M42.6562 26.0108V27.6771C42.6562 29.3267 44.1892 31.0096 46.0221 31.0096H49.3213C51.1542 31.0096 52.6539 29.3267 52.6539 27.6771V27.1772C52.6539 25.8942 51.7541 24.7444 50.3877 24.3279L44.939 22.6949C43.5727 22.2784 42.6562 21.1453 42.6562 19.8456V19.3457C42.6562 17.6961 44.1559 16.0132 45.9888 16.0132H49.3213C51.1542 16.0132 52.6539 17.6961 52.6539 19.3457V21.012" stroke="#00999A" stroke-width="2" stroke-miterlimit="10"/>
<path d="M47.6553 16.0132V11.0144" stroke="#00999A" stroke-width="2" stroke-miterlimit="10"/>
<path d="M47.6553 31.0095V36.0083" stroke="#00999A" stroke-width="2" stroke-miterlimit="10"/>
</svg>

<svg width="72" height="79" fill="none" xmlns="http://www.w3.org/2000/svg"><path d="M7.665 54.337c-3.6 0-6.665-3.416-6.665-6.665V32.676c0-5.499 9.214-8.332 14.996-8.332s16.663 2.833 16.663 8.332V52.67" stroke="#00999A" stroke-width="2" stroke-linecap="round" stroke-linejoin="round"/><path d="M15.996 19.346c-3.882 0-6.665-2.716-6.665-6.665V9.348c0-3.95 2.783-6.665 6.665-6.665s6.665 2.716 6.665 6.665v3.332c0 3.95-2.783 6.666-6.665 6.666z" stroke="#00999A" stroke-width="2" stroke-linejoin="round"/><path d="M7.665 77.665V36.008m18.329 0v16.663m0 14.997v9.997m-9.998-24.994v24.994" stroke="#00999A" stroke-width="2" stroke-linecap="round" stroke-linejoin="round"/><path d="M22.678 67.65h18.329V52.655h-18.33v14.997z" stroke="#00999A" stroke-width="2" stroke-linejoin="round"/><path d="M27.46 12.664C31.492 5.699 39.024 1 47.672 1 60.552 1 71 11.447 71 24.328c0 12.88-10.448 23.328-23.328 23.328-3.55 0-6.915-.8-9.914-2.217" stroke="#00999A" stroke-width="2" stroke-miterlimit="10"/><path d="M42.656 26.01v1.667c0 1.65 1.533 3.333 3.366 3.333h3.3c1.832 0 3.332-1.683 3.332-3.333v-.5c0-1.283-.9-2.433-2.266-2.85l-5.449-1.632c-1.366-.417-2.283-1.55-2.283-2.85v-.5c0-1.649 1.5-3.332 3.333-3.332h3.332c1.833 0 3.333 1.683 3.333 3.333v1.666m-4.999-4.999v-4.999m0 19.996v4.998" stroke="#00999A" stroke-width="2" stroke-miterlimit="10"/></svg>
